X:1
T:Donside Lasses, The
T:Donside Lasses, The
T:Alexander Walker
C:Alexander Walker
L:1/8
M:2/2
K:A
V:1 treble 
V:1
 F | EA,CA, ECAF | EFEC FB,B,F | EA,CA, EFAc | dBeB cAA :| B | cAFA ECA,E | d(Bc)A (FB)Bd | %8
 cAFA ECA,c | faef cAAB | cAFA ECA,E | d(Bc)A FBBg | aefa ABcB | AFED CA,A, || %14

